public/cloud-icons/azure/data/azure-cosmos-db-synapse-link.svg

<?xml version="1.0" encoding="UTF-8" standalone="no"?>
<!-- Generated by Microsoft Visio, SVG Export Azure Cosmos DB Synapse Link.svg Page-1 -->

<svg
   xmlns:dc="http://purl.org/dc/elements/1.1/"
   xmlns:cc="http://creativecommons.org/ns#"
   xmlns:rdf="http://www.w3.org/1999/02/22-rdf-syntax-ns#"
   xmlns:svg="http://www.w3.org/2000/svg"
   xmlns="http://www.w3.org/2000/svg"
   xmlns:sodipodi="http://sodipodi.sourceforge.net/DTD/sodipodi-0.dtd"
   xmlns:inkscape="http://www.inkscape.org/namespaces/inkscape"
   width="48.189999"
   height="56.698002"
   viewBox="0 0 48.189997 56.698002"
   xml:space="preserve"
   class="st5"
   version="1.1"
   id="svg65"
   sodipodi:docname="Azure Cosmos DB Synapse Link.svg"
   style="font-size:12px;overflow:visible;color-interpolation-filters:sRGB;fill:none;fill-rule:evenodd;stroke-linecap:square;stroke-miterlimit:3"
   inkscape:version="0.92.5 (2060ec1f9f, 2020-04-08)"><metadata
   id="metadata69"><rdf:RDF><cc:Work
       rdf:about=""><dc:format>image/svg+xml</dc:format><dc:type
         rdf:resource="http://purl.org/dc/dcmitype/StillImage" /></cc:Work></rdf:RDF></metadata><sodipodi:namedview
   pagecolor="#ffffff"
   bordercolor="#666666"
   borderopacity="1"
   objecttolerance="10"
   gridtolerance="10"
   guidetolerance="10"
   inkscape:pageopacity="0"
   inkscape:pageshadow="2"
   inkscape:window-width="640"
   inkscape:window-height="480"
   id="namedview67"
   showgrid="false"
   inkscape:zoom="1.8924055"
   inkscape:cx="24.094501"
   inkscape:cy="28.3398"
   inkscape:window-x="0"
   inkscape:window-y="0"
   inkscape:window-maximized="0"
   inkscape:current-layer="svg65" />
	<style
   type="text/css"
   id="style2">
	<![CDATA[
		.st1 {fill:#0078d4;stroke:none;stroke-linecap:butt;stroke-width:34}
		.st2 {fill:url(#grad0-8);stroke:none;stroke-linecap:butt;stroke-width:34}
		.st3 {fill:#50e6ff;stroke:none;stroke-linecap:butt;stroke-width:34}
		.st4 {fill:url(#grad0-14);stroke:none;stroke-linecap:butt;stroke-width:34}
		.st5 {fill:none;fill-rule:evenodd;font-size:12px;overflow:visible;stroke-linecap:square;stroke-miterlimit:3}
	]]>
	</style>

	<defs
   id="Patterns_And_Gradients">
		<linearGradient
   id="grad0-8"
   x1="0"
   y1="181.69844"
   x2="28.580072"
   y2="181.69844"
   gradientTransform="scale(1.6861399,0.59307059)"
   gradientUnits="userSpaceOnUse">
			<stop
   offset="0.2"
   stop-color="#005ba1"
   stop-opacity="1"
   id="stop4" />
			<stop
   offset="1"
   stop-color="#0078d4"
   stop-opacity="1"
   id="stop6" />
		</linearGradient>
		<linearGradient
   id="grad0-14"
   x1="-1.4654199"
   y1="117.0976"
   x2="25.208571"
   y2="117.0976"
   gradientTransform="scale(1.1373116,0.87926648)"
   gradientUnits="userSpaceOnUse">
			<stop
   offset="0"
   stop-color="#198ab3"
   stop-opacity="1"
   id="stop9" />
			<stop
   offset="0.17"
   stop-color="#32bedd"
   stop-opacity="1"
   id="stop11" />
			<stop
   offset="0.5"
   stop-color="#50e6ff"
   stop-opacity="1"
   id="stop13" />
			<stop
   offset="0.5"
   stop-color="#4fe4fd"
   stop-opacity="1"
   id="stop15" />
			<stop
   offset="0.5"
   stop-color="#4bddf8"
   stop-opacity="1"
   id="stop17" />
			<stop
   offset="0.5"
   stop-color="#44d2ee"
   stop-opacity="1"
   id="stop19" />
			<stop
   offset="0.5"
   stop-color="#3ac1e0"
   stop-opacity="1"
   id="stop21" />
			<stop
   offset="0.5"
   stop-color="#2dabce"
   stop-opacity="1"
   id="stop23" />
			<stop
   offset="0.5"
   stop-color="#1d90b8"
   stop-opacity="1"
   id="stop25" />
			<stop
   offset="0.5"
   stop-color="#198ab3"
   stop-opacity="1"
   id="stop27" />
			<stop
   offset="0.66"
   stop-color="#32bedd"
   stop-opacity="1"
   id="stop29" />
			<stop
   offset="0.975"
   stop-color="#50e6ff"
   stop-opacity="1"
   id="stop31" />
		</linearGradient>
	</defs>
	<g
   id="g63"
   transform="translate(-34,-33.9963)">
		<title
   id="title35">Page-1</title>
		<g
   id="group21010-1"
   transform="translate(34,-34.0157)">
			<title
   id="title37">Azure Cosmos DB Synapse Link.21010</title>
			<g
   id="group21011-2">
				<title
   id="title39">Sheet.21011</title>
				<g
   id="shape21012-3">
					<title
   id="title41">Sheet.21012</title>
					<path
   d="M 24.09,68.02 0,82.16 v 28.25 l 24.09,14.3 24.1,-14.14 V 82.22 Z M 43.74,107.61 24.09,119.26 4.45,107.73 V 84.96 L 24.09,73.31 43.74,84.99 Z"
   class="st1"
   id="path43"
   inkscape:connector-curvature="0"
   style="fill:#0078d4;stroke:none;stroke-width:34;stroke-linecap:butt" />
				</g>
				<g
   id="shape21013-5"
   transform="translate(0,-39.748)">
					<title
   id="title46">Sheet.21013</title>
					<path
   d="M 24.09,107.76 0,121.91 l 4.45,2.8 19.64,-11.65 19.65,11.65 4.45,-2.8 z"
   class="st2"
   id="path48"
   inkscape:connector-curvature="0"
   style="fill:url(#grad0-8);stroke:none;stroke-width:34;stroke-linecap:butt" />
				</g>
				<g
   id="shape21014-9"
   transform="translate(7.55984,-7.08346)">
					<title
   id="title51">Sheet.21014</title>
					<path
   d="M 28.01,108.09 A 2.24063,2.29921 -180 0 0 27.02,107.19 17.9097,18.378 -180 0 0 13.28,96.65 L 33.16,84.86 28.54,82.14 5.9,95.57 a 2.30202,2.3622 -180 0 0 1.15,4.41 2.09944,2.15433 -180 0 0 0.28,-0.07 l 0.38,1.65 a 13.2566,13.6031 0 0 1 14.85,7.04 L 0,121.98 l 4.6,2.73 22.57,-13.39 a 2.23756,2.29606 -180 0 0 0.75,-0.74 l 0.23,-0.06 c -0.03,-0.09 -0.06,-0.17 -0.08,-0.26 a 2.25598,2.31496 -180 0 0 -0.06,-2.17 z"
   class="st3"
   id="path53"
   inkscape:connector-curvature="0"
   style="fill:#50e6ff;stroke:none;stroke-width:34;stroke-linecap:butt" />
				</g>
				<g
   id="shape21015-11"
   transform="translate(10.5919,-18.3586)">
					<title
   id="title56">Sheet.21015</title>
					<path
   d="m 22.99,114.76 a 5.67832,5.82677 -180 1 0 5.68,5.83 5.67832,5.82677 -180 0 0 -5.68,-5.83 z M 4.02,102.96 a 5.67832,5.82677 -180 1 0 5.67,5.83 5.67832,5.82677 -180 0 0 -5.67,-5.83 z"
   class="st4"
   id="path58"
   inkscape:connector-curvature="0"
   style="fill:url(#grad0-14);stroke:none;stroke-width:34;stroke-linecap:butt" />
				</g>
			</g>
		</g>
	</g>
</svg>

<svg xmlns="http://www.w3.org/2000/svg" xml:space="preserve" width="48.19" height="56.698" style="font-size:12px;overflow:visible;color-interpolation-filters:sRGB;fill-rule:evenodd;stroke-linecap:square;stroke-miterlimit:3" viewBox="0 0 48.19 56.698"><defs><linearGradient id="a" x1="0" x2="28.58" y1="181.698" y2="181.698" gradientTransform="scale(1.68614 .59307)" gradientUnits="userSpaceOnUse"><stop offset=".2" stop-color="#005ba1"/><stop offset="1" stop-color="#0078d4"/></linearGradient><linearGradient id="b" x1="-1.465" x2="25.209" y1="117.098" y2="117.098" gradientTransform="scale(1.13731 .87927)" gradientUnits="userSpaceOnUse"><stop offset="0" stop-color="#198ab3"/><stop offset=".17" stop-color="#32bedd"/><stop offset=".5" stop-color="#50e6ff"/><stop offset=".5" stop-color="#4fe4fd"/><stop offset=".5" stop-color="#4bddf8"/><stop offset=".5" stop-color="#44d2ee"/><stop offset=".5" stop-color="#3ac1e0"/><stop offset=".5" stop-color="#2dabce"/><stop offset=".5" stop-color="#1d90b8"/><stop offset=".5" stop-color="#198ab3"/><stop offset=".66" stop-color="#32bedd"/><stop offset=".975" stop-color="#50e6ff"/></linearGradient></defs><g transform="translate(-34 -33.996)"><title>Page-1</title><g transform="translate(34 -34.016)"><title>Azure Cosmos DB Synapse Link.21010</title><title>Sheet.21011</title><title>Sheet.21012</title><path d="M24.09 68.02 0 82.16v28.25l24.09 14.3 24.1-14.14V82.22Zm19.65 39.59-19.65 11.65-19.64-11.53V84.96l19.64-11.65 19.65 11.68Z" style="fill:#0078d4;stroke:none;stroke-width:34;stroke-linecap:butt"/><g transform="translate(0 -39.748)"><title>Sheet.21013</title><path d="M24.09 107.76 0 121.91l4.45 2.8 19.64-11.65 19.65 11.65 4.45-2.8z" style="fill:url(#a);stroke:none;stroke-width:34;stroke-linecap:butt"/></g><g transform="translate(7.56 -7.083)"><title>Sheet.21014</title><path d="M28.01 108.09a2.24 2.3-180 0 0-.99-.9 17.91 18.378-180 0 0-13.74-10.54l19.88-11.79-4.62-2.72L5.9 95.57a2.302 2.362-180 0 0 1.15 4.41 2.1 2.154-180 0 0 .28-.07l.38 1.65a13.257 13.603 0 0 1 14.85 7.04L0 121.98l4.6 2.73 22.57-13.39a2.238 2.296-180 0 0 .75-.74l.23-.06c-.03-.09-.06-.17-.08-.26a2.256 2.315-180 0 0-.06-2.17" style="fill:#50e6ff;stroke:none;stroke-width:34;stroke-linecap:butt"/></g><g transform="translate(10.592 -18.359)"><title>Sheet.21015</title><path d="M22.99 114.76a5.678 5.827-180 1 0 5.68 5.83 5.678 5.827-180 0 0-5.68-5.83m-18.97-11.8a5.678 5.827-180 1 0 5.67 5.83 5.678 5.827-180 0 0-5.67-5.83" style="fill:url(#b);stroke:none;stroke-width:34;stroke-linecap:butt"/></g></g></g></svg>
